X:0053
T:The Lads of Dunse.
M:6/8
L:1/8
Q:3/8=120
I: :: ::
Z:Jack Campin * www.campin.me.uk * 2009
K:D
B|AFD DFD|DFD B2A|Bcd AFA|BEE Ed
B|AFD DFD|DFD B2A|Bcd AFA|FDD D2:|
g|fef d2e|fga B2A|Bcd AFA|BEE E2
g|fef d2e|fga B2A|Bcd AFA|FDD D2:|
<end>
<start>
